X: 12213
T: Fahy's Favourite
R: reel
M: 4/4
K: Gmixolydian
3DE^F|G2 ~G2 dGBG|F2 ~F2 cFA^F|G2~G2 dGBG|F2 Ac fcA^F|
G2 ~G2 dGBG|F2 ~F2 cFAF|GFDE FGAc|fcA^F G:|:3ABc||
dgg^f g3 a|bgg^f dcBc|dffe f3 g|afg^f dcBc|
dgg^f g3 a|bgag g^fde|~f3 a gfdc|(3Bcd A^F G:|

